X:492
T:Tavaszi szel
Z:Jack Campin, http://www.campin.me.uk/
F:Jack Campin's Nine-Note Tunebook
% last edit 03-02-2013
S:various versions on the web
G:Hungarian children's song
M:4/4
L:1/8
Q:1/4=110
K:DMin
F2 G2 A2  A2|G2 (GA)  F2  G2|A  A3    G2 (GA)|F4 C4 |
F2 G2 A A3  |G2 (GA) (FE) D2|G (G2 A) F2  E2 |D4 D4|]

